public/svgs/value/title2.svg

<svg width="1788" height="582" viewBox="0 0 1788 582" fill="none" xmlns="http://www.w3.org/2000/svg">
<path d="M15.3 134V9.79999H63C95.4 9.79999 111.6 26.06 111.6 58.58V85.22C111.6 117.74 95.4 134 63 134H15.3ZM37.26 114.02H64.26C81.18 114.02 89.64 105.56 89.64 88.64V55.16C89.64 38.24 81.18 29.78 64.26 29.78H37.26V114.02ZM138.523 134V9.79999H160.483V134H138.523ZM185.681 125.72V114.02H241.301C246.581 114.02 249.221 111.44 249.221 106.28V92.6C249.221 88.04 247.181 85.34 243.101 84.5L206.561 77.12C192.641 74.36 185.681 65 185.681 49.04V39.14C185.681 19.58 195.461 9.79999 215.021 9.79999H256.961L267.581 18.08V29.78H215.561C210.281 29.78 207.641 32.36 207.641 37.52V49.58C207.641 54.14 209.681 56.84 213.761 57.68L250.301 64.88C264.221 67.76 271.181 77.12 271.181 92.96V104.66C271.181 124.22 261.401 134 241.841 134H196.301L185.681 125.72ZM294.574 104.66V39.14C294.574 19.58 304.354 9.79999 323.914 9.79999H372.874L383.494 18.08V29.78H324.454C319.174 29.78 316.534 32.36 316.534 37.52V106.28C316.534 111.44 319.174 114.02 324.454 114.02H383.494V125.72L372.874 134H323.914C304.354 134 294.574 124.22 294.574 104.66ZM406.02 104.66V39.14C406.02 19.58 415.8 9.79999 435.36 9.79999H476.58C496.14 9.79999 505.92 19.58 505.92 39.14V104.66C505.92 124.22 496.14 134 476.58 134H435.36C415.8 134 406.02 124.22 406.02 104.66ZM427.98 106.28C427.98 111.44 430.62 114.02 435.9 114.02H476.04C481.32 114.02 483.96 111.44 483.96 106.28V37.52C483.96 32.36 481.32 29.78 476.04 29.78H435.9C430.62 29.78 427.98 32.36 427.98 37.52V106.28ZM522.854 14.12L525.734 9.79999H544.814L575.594 114.02H579.014L609.794 9.79999H629.054L631.754 14.12L595.034 134H559.394L522.854 14.12ZM650.398 134V9.79999H733.918V29.78H672.358V59.66H728.518V79.64H672.358V114.02H733.918V134H650.398ZM758.152 134V9.79999H817.912C837.472 9.79999 847.252 19.58 847.252 39.14V59.48C847.252 74.6 841.252 83.78 829.252 87.02L850.852 129.32L848.152 134H829.432L806.392 88.64H780.112V134H758.152ZM780.112 68.66H817.372C822.652 68.66 825.292 66.02 825.292 60.74V37.52C825.292 32.36 822.652 29.78 817.372 29.78H780.112V68.66ZM874.167 134V9.79999H896.127V134H874.167ZM926.726 134V9.79999H950.666L1005.75 98.36V9.79999H1027.71V134H1003.95L948.686 45.44V134H926.726ZM1056.59 104.66V39.14C1056.59 19.58 1066.37 9.79999 1085.93 9.79999H1138.67L1149.29 18.08V29.78H1086.47C1081.19 29.78 1078.55 32.36 1078.55 37.52V106.28C1078.55 111.44 1081.19 114.02 1086.47 114.02H1130.93V79.64H1104.65V59.66H1152.89V134H1085.93C1066.37 134 1056.59 124.22 1056.59 104.66Z" fill="black"/>
<path d="M18 328.88V241.52C18 215.44 31.04 202.4 57.12 202.4H122.4L136.56 213.44V229.04H57.84C50.8 229.04 47.28 232.48 47.28 239.36V331.04C47.28 337.92 50.8 341.36 57.84 341.36H136.56V356.96L122.4 368H57.12C31.04 368 18 354.96 18 328.88ZM168.994 368V202.4H198.274V268.88H268.114V202.4H297.394V368H268.114V295.52H198.274V368H168.994ZM322.373 362.24L373.493 202.4H419.093L469.973 362.24L466.373 368H441.653L430.373 331.52H361.973L350.453 368H326.213L322.373 362.24ZM370.133 304.88H422.453L398.453 229.04H393.893L370.133 304.88ZM495.009 368V202.4H531.009L580.689 308.48L630.369 202.4H666.369V368H636.849V252.32L593.169 345.44H567.969L524.289 252.32V368H495.009ZM707.119 368V202.4H786.799C812.879 202.4 825.919 215.44 825.919 241.52V273.44C825.919 299.36 812.879 312.32 786.799 312.32H736.399V368H707.119ZM736.399 285.68H786.079C793.119 285.68 796.639 282.16 796.639 275.12V239.36C796.639 232.48 793.119 229.04 786.079 229.04H736.399V285.68ZM859.463 368V202.4H888.743V368H859.463ZM927.141 328.88V241.52C927.141 215.44 940.181 202.4 966.261 202.4H1021.22C1047.3 202.4 1060.34 215.44 1060.34 241.52V328.88C1060.34 354.96 1047.3 368 1021.22 368H966.261C940.181 368 927.141 354.96 927.141 328.88ZM956.421 331.04C956.421 337.92 959.941 341.36 966.981 341.36H1020.5C1027.54 341.36 1031.06 337.92 1031.06 331.04V239.36C1031.06 232.48 1027.54 229.04 1020.5 229.04H966.981C959.941 229.04 956.421 232.48 956.421 239.36V331.04ZM1098.76 368V202.4H1130.68L1204.12 320.48V202.4H1233.4V368H1201.72L1128.04 249.92V368H1098.76ZM1267.11 356.96V341.36H1341.27C1348.31 341.36 1351.83 337.92 1351.83 331.04V312.8C1351.83 306.72 1349.11 303.12 1343.67 302L1294.95 292.16C1276.39 288.48 1267.11 276 1267.11 254.72V241.52C1267.11 215.44 1280.15 202.4 1306.23 202.4H1362.15L1376.31 213.44V229.04H1306.95C1299.91 229.04 1296.39 232.48 1296.39 239.36V255.44C1296.39 261.52 1299.11 265.12 1304.55 266.24L1353.27 275.84C1371.83 279.68 1381.11 292.16 1381.11 313.28V328.88C1381.11 354.96 1368.07 368 1341.99 368H1281.27L1267.11 356.96Z" fill="#BB1212"/>
<path d="M29.725 546V435.6H49.245V546H29.725ZM76.4438 546V435.6H97.7238L146.684 514.32V435.6H166.204V546H145.084L95.9638 467.28V546H76.4438ZM231.913 546V435.6H251.433V528.24H301.353V546H231.913ZM317.188 519.92V461.68C317.188 444.293 325.881 435.6 343.268 435.6H379.908C397.294 435.6 405.988 444.293 405.988 461.68V519.92C405.988 537.307 397.294 546 379.908 546H343.268C325.881 546 317.188 537.307 317.188 519.92ZM336.708 521.36C336.708 525.947 339.054 528.24 343.748 528.24H379.428C384.121 528.24 386.468 525.947 386.468 521.36V460.24C386.468 455.653 384.121 453.36 379.428 453.36H343.748C339.054 453.36 336.708 455.653 336.708 460.24V521.36ZM431.6 546V435.6H452.88L501.84 514.32V435.6H521.36V546H500.24L451.12 467.28V546H431.6ZM547.031 519.92V461.68C547.031 444.293 555.725 435.6 573.111 435.6H619.991L629.431 442.96V453.36H573.591C568.898 453.36 566.551 455.653 566.551 460.24V521.36C566.551 525.947 568.898 528.24 573.591 528.24H613.111V497.68H589.751V479.92H632.631V546H573.111C555.725 546 547.031 537.307 547.031 519.92ZM656.6 546V435.6H730.84V453.36H676.12V479.92H726.04V497.68H676.12V528.24H730.84V546H656.6ZM741.821 439.44L744.381 435.6H761.341L788.701 528.24H791.741L819.101 435.6H836.221L838.621 439.44L805.981 546H774.301L741.821 439.44ZM855.194 546V435.6H874.714V546H855.194ZM892.153 453.36V435.6H981.273V453.36H946.553V546H926.873V453.36H892.153ZM988.228 439.44L990.628 435.6H1007.27L1033.35 485.68L1059.59 435.6H1076.39L1078.63 439.44L1043.27 506.32V546H1023.59V506.32L988.228 439.44ZM1133.63 546V435.6H1185.15C1202.54 435.6 1211.23 444.293 1211.23 461.68V471.76C1211.23 475.387 1210.16 478.48 1208.03 481.04L1202.43 487.76L1209.15 493.36C1212.67 496.24 1214.43 500.507 1214.43 506.16V519.92C1214.43 537.307 1205.74 546 1188.35 546H1133.63ZM1153.15 528.24H1187.87C1192.56 528.24 1194.91 525.947 1194.91 521.36V504.56C1194.91 499.973 1192.56 497.68 1187.87 497.68H1153.15V528.24ZM1153.15 479.92H1184.67C1189.36 479.92 1191.71 477.573 1191.71 472.88V460.24C1191.71 455.653 1189.36 453.36 1184.67 453.36H1153.15V479.92ZM1237.54 546V435.6H1257.06V546H1237.54ZM1282.66 519.92V461.68C1282.66 444.293 1291.35 435.6 1308.74 435.6H1345.38C1362.76 435.6 1371.46 444.293 1371.46 461.68V519.92C1371.46 537.307 1362.76 546 1345.38 546H1308.74C1291.35 546 1282.66 537.307 1282.66 519.92ZM1302.18 521.36C1302.18 525.947 1304.52 528.24 1309.22 528.24H1344.9C1349.59 528.24 1351.94 525.947 1351.94 521.36V460.24C1351.94 455.653 1349.59 453.36 1344.9 453.36H1309.22C1304.52 453.36 1302.18 455.653 1302.18 460.24V521.36ZM1387.31 453.36V435.6H1476.43V453.36H1441.71V546H1422.03V453.36H1387.31ZM1493.94 546V435.6H1568.18V453.36H1513.46V479.92H1563.38V497.68H1513.46V528.24H1568.18V546H1493.94ZM1588.13 519.92V461.68C1588.13 444.293 1596.82 435.6 1614.21 435.6H1657.73L1667.17 442.96V453.36H1614.69C1609.99 453.36 1607.65 455.653 1607.65 460.24V521.36C1607.65 525.947 1609.99 528.24 1614.69 528.24H1667.17V538.64L1657.73 546H1614.21C1596.82 546 1588.13 537.307 1588.13 519.92ZM1688.79 546V435.6H1708.31V479.92H1754.87V435.6H1774.39V546H1754.87V497.68H1708.31V546H1688.79Z" fill="black"/>
</svg>

<svg xmlns="http://www.w3.org/2000/svg" width="1788" height="582" fill="none" viewBox="0 0 1788 582"><path fill="#000" d="M15.3 134V9.8H63q48.6 0 48.6 48.78v26.64Q111.6 134 63 134zm21.96-19.98h27q25.38 0 25.38-25.38V55.16q0-25.38-25.38-25.38h-27zM138.523 134V9.8h21.96V134zm47.158-8.28v-11.7h55.62q7.92 0 7.92-7.74V92.6q0-6.84-6.12-8.1l-36.54-7.38q-20.88-4.14-20.88-28.08v-9.9q0-29.34 29.34-29.34h41.94l10.62 8.28v11.7h-52.02q-7.92 0-7.92 7.74v12.06q0 6.84 6.12 8.1l36.54 7.2q20.88 4.32 20.88 28.08v11.7q0 29.34-29.34 29.34h-45.54zm108.893-21.06V39.14q0-29.34 29.34-29.34h48.96l10.62 8.28v11.7h-59.04q-7.92 0-7.92 7.74v68.76q0 7.74 7.92 7.74h59.04v11.7l-10.62 8.28h-48.96q-29.34 0-29.34-29.34m111.446 0V39.14q0-29.34 29.34-29.34h41.22q29.34 0 29.34 29.34v65.52q0 29.34-29.34 29.34h-41.22q-29.34 0-29.34-29.34m21.96 1.62q0 7.74 7.92 7.74h40.14q7.92 0 7.92-7.74V37.52q0-7.74-7.92-7.74H435.9q-7.92 0-7.92 7.74zm94.874-92.16 2.88-4.32h19.08l30.78 104.22h3.42L609.794 9.8h19.26l2.7 4.32L595.034 134h-35.64zM650.398 134V9.8h83.52v19.98h-61.56v29.88h56.16v19.98h-56.16v34.38h61.56V134zm107.754 0V9.8h59.76q29.34 0 29.34 29.34v20.34q0 22.68-18 27.54l21.6 42.3-2.7 4.68h-18.72l-23.04-45.36h-26.28V134zm21.96-65.34h37.26q7.92 0 7.92-7.92V37.52q0-7.74-7.92-7.74h-37.26zM874.167 134V9.8h21.96V134zm52.559 0V9.8h23.94l55.084 88.56V9.8h21.96V134h-23.76l-55.264-88.56V134zm129.864-29.34V39.14q0-29.34 29.34-29.34h52.74l10.62 8.28v11.7h-62.82q-7.92 0-7.92 7.74v68.76q0 7.74 7.92 7.74h44.46V79.64h-26.28V59.66h48.24V134h-66.96q-29.34 0-29.34-29.34"/><path fill="#bb1212" d="M18 328.88v-87.36q0-39.12 39.12-39.12h65.28l14.16 11.04v15.6H57.84q-10.56 0-10.56 10.32v91.68q0 10.32 10.56 10.32h78.72v15.6L122.4 368H57.12Q18 368 18 328.88M168.994 368V202.4h29.28v66.48h69.84V202.4h29.28V368h-29.28v-72.48h-69.84V368zm153.379-5.76 51.12-159.84h45.6l50.88 159.84-3.6 5.76h-24.72l-11.28-36.48h-68.4L350.453 368h-24.24zm47.76-57.36h52.32l-24-75.84h-4.56zM495.009 368V202.4h36l49.68 106.08 49.68-106.08h36V368h-29.52V252.32l-43.68 93.12h-25.2l-43.68-93.12V368zm212.11 0V202.4h79.68q39.12 0 39.12 39.12v31.92q0 38.88-39.12 38.88h-50.4V368zm29.28-82.32h49.68q10.56 0 10.56-10.56v-35.76q0-10.32-10.56-10.32h-49.68zM859.463 368V202.4h29.28V368zm67.678-39.12v-87.36q0-39.12 39.12-39.12h54.959q39.12 0 39.12 39.12v87.36q0 39.12-39.12 39.12h-54.959q-39.12 0-39.12-39.12m29.28 2.16q0 10.32 10.56 10.32h53.519q10.56 0 10.56-10.32v-91.68q0-10.32-10.56-10.32h-53.519q-10.56 0-10.56 10.32zM1098.76 368V202.4h31.92l73.44 118.08V202.4h29.28V368h-31.68l-73.68-118.08V368zm168.35-11.04v-15.6h74.16q10.56 0 10.56-10.32V312.8q0-9.12-8.16-10.8l-48.72-9.84q-27.84-5.52-27.84-37.44v-13.2q0-39.12 39.12-39.12h55.92l14.16 11.04v15.6h-69.36q-10.56 0-10.56 10.32v16.08q0 9.12 8.16 10.8l48.72 9.6q27.84 5.76 27.84 37.44v15.6q0 39.12-39.12 39.12h-60.72z"/><path fill="#000" d="M29.725 546V435.6h19.52V546zm46.719 0V435.6h21.28l48.96 78.72V435.6h19.52V546h-21.12l-49.12-78.72V546zm155.469 0V435.6h19.52v92.64h49.92V546zm85.275-26.08v-58.24q0-26.08 26.08-26.08h36.64q26.08 0 26.08 26.08v58.24q0 26.08-26.08 26.08h-36.64q-26.08 0-26.08-26.08m19.52 1.44q0 6.88 7.04 6.88h35.68q7.04 0 7.04-6.88v-61.12q0-6.88-7.04-6.88h-35.68q-7.04 0-7.04 6.88zM431.6 546V435.6h21.28l48.96 78.72V435.6h19.52V546h-21.12l-49.12-78.72V546zm115.431-26.08v-58.24q0-26.08 26.08-26.08h46.88l9.44 7.36v10.4h-55.84q-7.04 0-7.04 6.88v61.12q0 6.88 7.04 6.88h39.52v-30.56h-23.36v-17.76h42.88V546h-59.52q-26.08 0-26.08-26.08M656.6 546V435.6h74.24v17.76h-54.72v26.56h49.92v17.76h-49.92v30.56h54.72V546zm85.221-106.56 2.56-3.84h16.96l27.36 92.64h3.04l27.36-92.64h17.12l2.4 3.84L805.981 546h-31.68zM855.194 546V435.6h19.52V546zm36.959-92.64V435.6h89.12v17.76h-34.72V546h-19.68v-92.64zm96.075-13.92 2.4-3.84h16.642l26.08 50.08 26.24-50.08h16.8l2.24 3.84-35.36 66.88V546h-19.68v-39.68zM1133.63 546V435.6h51.52c17.39 0 26.08 8.693 26.08 26.08v10.08c0 3.627-1.07 6.72-3.2 9.28l-5.6 6.72 6.72 5.6q5.28 4.32 5.28 12.8v13.76c0 17.387-8.69 26.08-26.08 26.08zm19.52-17.76h34.72c4.69 0 7.04-2.293 7.04-6.88v-16.8c0-4.587-2.35-6.88-7.04-6.88h-34.72zm0-48.32h31.52c4.69 0 7.04-2.347 7.04-7.04v-12.64c0-4.587-2.35-6.88-7.04-6.88h-31.52zm84.39 66.08V435.6h19.52V546zm45.12-26.08v-58.24c0-17.387 8.69-26.08 26.08-26.08h36.64c17.38 0 26.08 8.693 26.08 26.08v58.24c0 17.387-8.7 26.08-26.08 26.08h-36.64c-17.39 0-26.08-8.693-26.08-26.08m19.52 1.44c0 4.587 2.34 6.88 7.04 6.88h35.68c4.69 0 7.04-2.293 7.04-6.88v-61.12c0-4.587-2.35-6.88-7.04-6.88h-35.68c-4.7 0-7.04 2.293-7.04 6.88zm85.13-68V435.6h89.12v17.76h-34.72V546h-19.68v-92.64zM1493.94 546V435.6h74.24v17.76h-54.72v26.56h49.92v17.76h-49.92v30.56h54.72V546zm94.19-26.08v-58.24c0-17.387 8.69-26.08 26.08-26.08h43.52l9.44 7.36v10.4h-52.48c-4.7 0-7.04 2.293-7.04 6.88v61.12c0 4.587 2.34 6.88 7.04 6.88h52.48v10.4l-9.44 7.36h-43.52c-17.39 0-26.08-8.693-26.08-26.08M1688.79 546V435.6h19.52v44.32h46.56V435.6h19.52V546h-19.52v-48.32h-46.56V546z"/></svg>
